public/Usine_CloudChamber.svg

<?xml version="1.0" encoding="UTF-8"?><svg id="Calque_2" xmlns="http://www.w3.org/2000/svg" xmlns:xlink="http://www.w3.org/1999/xlink" viewBox="0 0 106.98 117.52"><defs><style>.cls-1{fill:none;}.cls-2{clip-path:url(#clippath);}.cls-3{fill:#1d1d1b;}</style><clipPath id="clippath"><rect class="cls-1" width="106.98" height="117.52"/></clipPath></defs><g id="Calque_1-2"><g class="cls-2"><path class="cls-3" d="m66.5,63.16c-.61.67-.37,1.27.07,1.79.96,1.14,3.25,1.12,4.24,0,.49-.56.52-1.33.07-1.85-1.78,1.63-3.17,1.66-4.38.05m-13.14,5.94c-.87.5-1.19,1.87-.44,2.71,1.04,1.16,2.37,1.43,3.74,1.25.8-.1,1.66-.55,2.26-1.09,1.03-.93.54-2.69-.75-3.12-1.86,1.96-2.94,2.01-4.81.26m-13.08-7.69c-1.46.98-1.31,3.31.04,4.54,1.55,1.42,4.5,1,5.66-.77.87-1.32.38-3.32-.92-3.81,0,2.1-.64,2.96-2.32,3.13-1.29.13-2.03-.81-2.45-3.09m-15.15,8.82c-.27.64-.57,1.26-.79,1.91-.08.23-.06.61.08.77.52.57,1.04,1.22,1.69,1.59,1.68.93,3.38.54,5.07-.15.86-.35,1.22-.94,1.24-1.8.01-.9-.35-1.64-1.1-2.28-.55,1.43-1.54,2.2-2.92,2.22-1.49.02-2.41-.94-3.27-2.26m54.34-3.64c-1.07,1.01-1,3.06.17,3.79,1.6,1,3.22,1.81,5.22.82,1.11-.55,1.9-1.03,2.03-2.41.16-1.66-.68-2.87-2.38-3.01.06,2.25-.53,3.15-2.22,3.42-1.27.2-2.35-.78-2.82-2.61m-31.93-9.36c-1.01,0-1.97-.1-2.89.05-.34.06-.59.69-1,1.2.76.12,1.24.19,1.71.28,1.1.2,1.9.81,2.29,1.85.39,1.03.81,2.07,1.01,3.15.21,1.13-.53,2.05-1.17,2.86-1,1.27-2.34,2.15-3.92,2.45-1.53.29-2.95-.25-4.15-1.21-.67-.53-1.3-1.17-1.77-1.87-1.06-1.6-.78-3.23.11-4.82.1-.17.08-.6-.03-.67-1.07-.64-1.54-1.71-2.04-2.75-.21-.43-.48-.64-.87-.47-.3.12-.69.42-.73.69-.47,2.97-2.27,4.67-5.05,5.48-.16.05-.31.11-.46.17-.02,0-.03.04-.08.1,0,.26.05.56,0,.85-.18.94-.1,1.62,1.11,1.74.39.04.73.6,1.1.9.55.45,1.09.93,1.68,1.32,1.26.84,2.22,1.92,2.65,3.37.16.55.07,1.26-.12,1.82-.84,2.49-3.01,3.99-5.69,3.92-1.32-.03-2.65-.14-3.96-.35-2.09-.34-4.16-2.8-3.53-5.19.32-1.2.81-2.15,1.69-2.95.19-.18.36-.39.64-.7-1.86-.1-2.92-1.09-3.52-2.67-.6-1.6-.28-3.02.86-4.35-2.14-.48-3.57-1.71-4.38-3.54-1.32.15-2.59.39-3.87.42-3.58.08-6.72-1.15-9.32-3.59-1.56-1.47-2.84-3.16-3.17-5.45-.24-1.65-.8-3.23-.66-4.96.15-1.93.6-3.72,1.53-5.43,1.63-2.99,4.15-4.9,7.24-6.09,1.7-.65,3.52-.79,5.33-.51.97.15,1.92.47,2.89.67.18.04.4-.13.6-.2-.12-.24-.19-.64-.38-.71-.81-.29-1.64-.54-2.48-.68-.65-.11-1.33-.07-1.99,0-.67.07-.95-.25-1.03-.84-.34-2.58-.32-5.14.43-7.66,1.2-4.05,3.44-7.33,7.07-9.57.97-.6,1.92-1.25,2.96-1.68,2.51-1.05,5.14-1.38,7.86-1.1,1.63.17,3.21.52,4.68,1.21,1.19.56,2.31,1.28,3.47,1.9.27.14.6.16.91.24-.12-.3-.17-.74-.39-.88-1-.66-2.03-1.29-3.1-1.83-.43-.22-.69-.38-.38-.81.8-1.11,1.57-2.26,2.47-3.29.95-1.09,1.97-2.15,3.1-3.05,1.05-.83,2.25-1.48,3.44-2.11,2.25-1.2,4.65-1.75,7.21-1.84,2-.07,3.98-.06,5.92.41,2.05.49,4.05,1.13,5.79,2.41.6.44,1.31.75,1.93,1.17,1.95,1.33,3.54,3.01,4.76,5.04.41.69.83,1.38,1.27,2.05.95,1.46,1.34,3.12,1.81,4.76.07.25.34.45.52.67.13-.26.43-.57.38-.77-.36-1.27-.8-2.52-1.22-3.77-.03-.1-.08-.19-.19-.48,1.31-.29,2.56-.75,3.81-.8,1.63-.06,3.29.09,4.89.37,1.01.17,2.02.62,2.91,1.14,1.55.9,2.87,2.08,4.04,3.46,1.97,2.33,2.71,5.06,2.81,8.03.02.73-.04,1.47-.18,2.18-.05.25-.42.53-.71.63-.89.31-1.81.52-2.7.83-.21.07-.35.37-.52.57.28.08.64.3.83.21,1.32-.67,2.73-.81,4.17-.91,2.5-.18,4.78.54,7.03,1.56,2.05.94,3.61,2.46,5.04,4.14,1.69,2,2.61,4.34,2.85,6.94.1,1.09.22,2.19.25,3.28.01.44-.21.89-.26,1.35-.26,2.65-1.41,4.96-2.96,7.03-1.3,1.74-2.97,3.17-4.95,4.1-1.73.81-3.51,1.49-5.49,1.43-1.02-.03-2.04.07-3.06.1-.65.02-1.04.4-1.46.87-.78.87-1.03,1.76-.94,2.95.06.82-.51,1.7-.84,2.66,1.21.57,1.81,1.96,2.54,3.24.94,1.64.82,3.16-.25,4.78-.85,1.29-2.12,1.69-3.39,2.2-.65.26-1.31.56-1.99.64-3.12.38-5.6-.81-7.45-3.32-.62-.83-.44-1.83-.38-2.77.05-.7.13-1.42.32-2.09.35-1.22,1.23-2.04,2.37-2.52.64-.27,1.34-.39,2.01-.59.17-.05.33-.15.49-.23-.17-.54-.3-1.06-.5-1.56-.06-.15-.24-.28-.4-.35-1.47-.65-2.81-1.45-3.81-2.77-.67-.88-2.19-.68-2.65.33-.5,1.1-1.38,1.77-2.51,2.27.4.5.79.94,1.14,1.4.97,1.31.44,3.53-.91,4.41-2,1.31-4,.92-5.97.12-1.89-.77-2.45-3.92-.49-4.82.86-.4,1.4-1.15,1.9-1.92.09-.14.08-.4,0-.56-.26-.56-.56-1.1-.83-1.62-1.35.12-2.68.27-4.02.35-.56.03-1.13-.15-1.69-.12-1.11.06-1.41.66-.85,1.6.88,1.47,1.05,2.99.16,4.48-.32.53-.93.87-1.4,1.31-.17.15-.33.32-.49.48.19.17.36.35.56.5.95.73,2.06,1.33,2.84,2.22,1.05,1.19.69,3.48-.57,4.46-.86.67-1.75,1.43-2.76,1.78-2.29.81-4.61.73-6.62-.81-1.52-1.16-1.71-3.66-.49-5.15.49-.6,1.14-1.07,1.59-1.69.5-.68.89-1.44,1.25-2.21.07-.14-.23-.45-.34-.69-.23-.51-.59-1.02-.63-1.55-.05-.64-.31-.76-.85-.8-1.9-.15-3.63-1.53-4.17-3.34-.14-.45-.17-.94-.26-1.49"/><path class="cls-3" d="m79.99,91.73c.02,1.15.59,1.69,1.81,1.69,1.11,0,2.11-.81,2.12-1.72,0-1.09-.89-2.05-1.91-2.02-1.05.02-2.03,1.01-2.01,2.05m-59.61,25.61c-.5-14.19.61-28.29.46-42.63.61.81,1.08,1.42,1.54,2.04.68.94,1.66,1.5,2.74,1.58,1.84.15,3.74.29,5.55.03,1.42-.2,2.85-.87,3.88-2.03.38-.43.62-.99,1.05-1.72.04.83.07,1.43.1,2.04.1,2.62.19,5.25.29,7.87.04.89.13,1.79.15,2.68.03,1.4.08,1.46,1.58,1.3-.25-7.09-.49-14.19-.75-21.54,1.85,1.78,3.82,2.74,6.2,2.85,2.63.13,4.1-1.56,5.67-3.39v20.09c1.22.26,1.32.13,1.27-1.07-.08-2.04-.09-4.08-.11-6.11-.01-1.44,0-2.89,0-4.33,0-.32.07-.63.14-1.16,1.75,1.89,3.69,2.86,6.15,2.68,2.45-.18,4.26-1.34,5.8-3.47.06.47.12.77.12,1.06,0,3.09,0,6.19.01,9.28,0,1.01.08,2.01.18,3.01.02.19.34.5.5.49.21-.01.53-.26.58-.46.09-.36.02-.76.02-1.14,0-2.59.02-5.17.03-7.76,0-3.01,0-6.03.01-9.04,0-.83.1-1.67.22-2.59,1.06,1.88,2.86,2.27,4.72,2.56,2.05.33,3.63-.44,5.03-2.07,0,.51,0,1.01,0,1.52-.02,4.68-.04,9.36-.06,14.04,0,.9-.04,1.8,0,2.69,0,.22.25.42.39.63.24-.2.63-.37.68-.61.15-.77.21-1.56.24-2.35.12-3.4.23-6.8.34-10.2.01-.36.06-.72.17-1.11,1.57,2.89,4.14,4.44,7.19,4.53,2.96.09,5.82-.84,7.75-3.65.06.63.14,1.25.17,1.88.09,2.18.19,4.35.24,6.53.04,1.63-.02,3.26,0,4.89.03,1.99.11,3.97.15,5.96.05,2.67.1,5.34.12,8.01,0,.97-.38,1.32-1.45,1.34-1.43.03-2.87,0-4.31,0-1.58,0-1.91.34-1.88,1.92,0,.22.05.43.09.64.21,1.32-.31,2.02-1.62,2.12-.51.04-1.03.02-1.54.07-.46.04-.95.2-.81.77.06.24.52.38.8.56.02.01.06,0,.08,0,.49.15,1.36.25,1.4.48.09.58-.02,1.35-.36,1.8-.58.78-.73,1.36-.32,2.33.65,1.52.64,3.16-.4,4.59-.32.43-.82.9-1.31.99-1.1.22-2.24.24-3.37.29-1,.04-2.01-.03-3.01,0-2.98.09-5.96.25-8.95.28-7.87.09-15.74.15-23.61.16-6.51,0-13.02-.09-19.53-.15-.11,0-.22-.01-.42-.03"/></g></g></svg>

<svg width="107" height="118" viewBox="0 0 107 118" fill="none" xmlns="http://www.w3.org/2000/svg">
<path d="M66.5 63.16C65.89 63.83 66.13 64.43 66.57 64.95C67.53 66.09 69.82 66.07 70.81 64.95C71.3 64.39 71.33 63.62 70.88 63.1C69.1 64.73 67.71 64.76 66.5 63.15M53.36 69.09C52.49 69.59 52.17 70.96 52.92 71.8C53.96 72.96 55.29 73.23 56.66 73.05C57.46 72.95 58.32 72.5 58.92 71.96C59.95 71.03 59.46 69.27 58.17 68.84C56.31 70.8 55.23 70.85 53.36 69.1M40.28 61.41C38.82 62.39 38.97 64.72 40.32 65.95C41.87 67.37 44.82 66.95 45.98 65.18C46.85 63.86 46.36 61.86 45.06 61.37C45.06 63.47 44.42 64.33 42.74 64.5C41.45 64.63 40.71 63.69 40.29 61.41M25.14 70.23C24.87 70.87 24.57 71.49 24.35 72.14C24.27 72.37 24.29 72.75 24.43 72.91C24.95 73.48 25.47 74.13 26.12 74.5C27.8 75.43 29.5 75.04 31.19 74.35C32.05 74 32.41 73.41 32.43 72.55C32.44 71.65 32.08 70.91 31.33 70.27C30.78 71.7 29.79 72.47 28.41 72.49C26.92 72.51 26 71.55 25.14 70.23ZM79.48 66.59C78.41 67.6 78.48 69.65 79.65 70.38C81.25 71.38 82.87 72.19 84.87 71.2C85.98 70.65 86.77 70.17 86.9 68.79C87.06 67.13 86.22 65.92 84.52 65.78C84.58 68.03 83.99 68.93 82.3 69.2C81.03 69.4 79.95 68.42 79.48 66.59ZM47.55 57.23C46.54 57.23 45.58 57.13 44.66 57.28C44.32 57.34 44.07 57.97 43.66 58.48C44.42 58.6 44.9 58.67 45.37 58.76C46.47 58.96 47.27 59.57 47.66 60.61C48.05 61.64 48.47 62.68 48.67 63.76C48.88 64.89 48.14 65.81 47.5 66.62C46.5 67.89 45.16 68.77 43.58 69.07C42.05 69.36 40.63 68.82 39.43 67.86C38.76 67.33 38.13 66.69 37.66 65.99C36.6 64.39 36.88 62.76 37.77 61.17C37.87 61 37.85 60.57 37.74 60.5C36.67 59.86 36.2 58.79 35.7 57.75C35.49 57.32 35.22 57.11 34.83 57.28C34.53 57.4 34.14 57.7 34.1 57.97C33.63 60.94 31.83 62.64 29.05 63.45C28.89 63.5 28.74 63.56 28.59 63.62C28.57 63.62 28.56 63.66 28.51 63.72C28.51 63.98 28.56 64.28 28.51 64.57C28.33 65.51 28.41 66.19 29.62 66.31C30.01 66.35 30.35 66.91 30.72 67.21C31.27 67.66 31.81 68.14 32.4 68.53C33.66 69.37 34.62 70.45 35.05 71.9C35.21 72.45 35.12 73.16 34.93 73.72C34.09 76.21 31.92 77.71 29.24 77.64C27.92 77.61 26.59 77.5 25.28 77.29C23.19 76.95 21.12 74.49 21.75 72.1C22.07 70.9 22.56 69.95 23.44 69.15C23.63 68.97 23.8 68.76 24.08 68.45C22.22 68.35 21.16 67.36 20.56 65.78C19.96 64.18 20.28 62.76 21.42 61.43C19.28 60.95 17.85 59.72 17.04 57.89C15.72 58.04 14.45 58.28 13.17 58.31C9.58995 58.39 6.44995 57.16 3.84995 54.72C2.28995 53.25 1.00995 51.56 0.679954 49.27C0.439954 47.62 -0.120046 46.04 0.0199539 44.31C0.169954 42.38 0.619954 40.59 1.54995 38.88C3.17995 35.89 5.69995 33.98 8.78995 32.79C10.49 32.14 12.31 32 14.12 32.28C15.09 32.43 16.04 32.75 17.01 32.95C17.19 32.99 17.41 32.82 17.61 32.75C17.49 32.51 17.42 32.11 17.23 32.04C16.42 31.75 15.59 31.5 14.75 31.36C14.1 31.25 13.42 31.29 12.76 31.36C12.09 31.43 11.81 31.11 11.73 30.52C11.39 27.94 11.41 25.38 12.16 22.86C13.36 18.81 15.6 15.53 19.23 13.29C20.2 12.69 21.15 12.04 22.19 11.61C24.7 10.56 27.33 10.23 30.05 10.51C31.68 10.68 33.26 11.03 34.73 11.72C35.92 12.28 37.04 13 38.2 13.62C38.47 13.76 38.8 13.78 39.11 13.86C38.99 13.56 38.94 13.12 38.72 12.98C37.72 12.32 36.69 11.69 35.62 11.15C35.19 10.93 34.93 10.77 35.24 10.34C36.04 9.23001 36.81 8.08001 37.71 7.05001C38.66 5.96001 39.68 4.90001 40.81 4.00001C41.86 3.17001 43.06 2.52001 44.25 1.89001C46.5 0.690008 48.9 0.140008 51.46 0.0500078C53.46 -0.0199922 55.44 -0.00999215 57.38 0.460008C59.43 0.950008 61.43 1.59001 63.17 2.87001C63.77 3.31001 64.48 3.62001 65.1 4.04001C67.05 5.37001 68.64 7.05001 69.86 9.08001C70.27 9.77001 70.69 10.46 71.13 11.13C72.08 12.59 72.47 14.25 72.94 15.89C73.01 16.14 73.28 16.34 73.46 16.56C73.59 16.3 73.89 15.99 73.84 15.79C73.48 14.52 73.04 13.27 72.62 12.02C72.59 11.92 72.54 11.83 72.43 11.54C73.74 11.25 74.99 10.79 76.24 10.74C77.87 10.68 79.53 10.83 81.13 11.11C82.14 11.28 83.15 11.73 84.04 12.25C85.59 13.15 86.91 14.33 88.08 15.71C90.05 18.04 90.79 20.77 90.89 23.74C90.91 24.47 90.85 25.21 90.71 25.92C90.66 26.17 90.29 26.45 90 26.55C89.11 26.86 88.19 27.07 87.3 27.38C87.09 27.45 86.95 27.75 86.78 27.95C87.06 28.03 87.42 28.25 87.61 28.16C88.93 27.49 90.34 27.35 91.78 27.25C94.28 27.07 96.56 27.79 98.81 28.81C100.86 29.75 102.42 31.27 103.85 32.95C105.54 34.95 106.46 37.29 106.7 39.89C106.8 40.98 106.92 42.08 106.95 43.17C106.96 43.61 106.74 44.06 106.69 44.52C106.43 47.17 105.28 49.48 103.73 51.55C102.43 53.29 100.76 54.72 98.78 55.65C97.05 56.46 95.27 57.14 93.29 57.08C92.27 57.05 91.25 57.15 90.23 57.18C89.58 57.2 89.19 57.58 88.77 58.05C87.99 58.92 87.74 59.81 87.83 61C87.89 61.82 87.32 62.7 86.99 63.66C88.2 64.23 88.8 65.62 89.53 66.9C90.47 68.54 90.35 70.06 89.28 71.68C88.43 72.97 87.16 73.37 85.89 73.88C85.24 74.14 84.58 74.44 83.9 74.52C80.78 74.9 78.3 73.71 76.45 71.2C75.83 70.37 76.01 69.37 76.07 68.43C76.12 67.73 76.2 67.01 76.39 66.34C76.74 65.12 77.62 64.3 78.76 63.82C79.4 63.55 80.1 63.43 80.77 63.23C80.94 63.18 81.1 63.08 81.26 63C81.09 62.46 80.96 61.94 80.76 61.44C80.7 61.29 80.52 61.16 80.36 61.09C78.89 60.44 77.55 59.64 76.55 58.32C75.88 57.44 74.36 57.64 73.9 58.65C73.4 59.75 72.52 60.42 71.39 60.92C71.79 61.42 72.18 61.86 72.53 62.32C73.5 63.63 72.97 65.85 71.62 66.73C69.62 68.04 67.62 67.65 65.65 66.85C63.76 66.08 63.2 62.93 65.16 62.03C66.02 61.63 66.56 60.88 67.06 60.11C67.15 59.97 67.14 59.71 67.06 59.55C66.8 58.99 66.5 58.45 66.23 57.93C64.88 58.05 63.55 58.2 62.21 58.28C61.65 58.31 61.08 58.13 60.52 58.16C59.41 58.22 59.11 58.82 59.67 59.76C60.55 61.23 60.72 62.75 59.83 64.24C59.51 64.77 58.9 65.11 58.43 65.55C58.26 65.7 58.1 65.87 57.94 66.03C58.13 66.2 58.3 66.38 58.5 66.53C59.45 67.26 60.56 67.86 61.34 68.75C62.39 69.94 62.03 72.23 60.77 73.21C59.91 73.88 59.02 74.64 58.01 74.99C55.72 75.8 53.4 75.72 51.39 74.18C49.87 73.02 49.68 70.52 50.9 69.03C51.39 68.43 52.04 67.96 52.49 67.34C52.99 66.66 53.38 65.9 53.74 65.13C53.81 64.99 53.51 64.68 53.4 64.44C53.17 63.93 52.81 63.42 52.77 62.89C52.72 62.25 52.46 62.13 51.92 62.09C50.02 61.94 48.29 60.56 47.75 58.75C47.61 58.3 47.58 57.81 47.49 57.26" fill="#1D1D1B"/>
<path d="M79.99 91.73C80.01 92.88 80.58 93.42 81.8 93.42C82.91 93.42 83.91 92.61 83.92 91.7C83.92 90.61 83.03 89.65 82.01 89.68C80.96 89.7 79.98 90.69 80 91.73M20.39 117.34C19.89 103.15 21 89.05 20.85 74.71C21.46 75.52 21.93 76.13 22.39 76.75C23.07 77.69 24.05 78.25 25.13 78.33C26.97 78.48 28.87 78.62 30.68 78.36C32.1 78.16 33.53 77.49 34.56 76.33C34.94 75.9 35.18 75.34 35.61 74.61C35.65 75.44 35.68 76.04 35.71 76.65C35.81 79.27 35.9 81.9 36 84.52C36.04 85.41 36.13 86.31 36.15 87.2C36.18 88.6 36.23 88.66 37.73 88.5C37.48 81.41 37.24 74.31 36.98 66.96C38.83 68.74 40.8 69.7 43.18 69.81C45.81 69.94 47.28 68.25 48.85 66.42V86.51C50.07 86.77 50.17 86.64 50.12 85.44C50.04 83.4 50.03 81.36 50.01 79.33C50 77.89 50.01 76.44 50.01 75C50.01 74.68 50.08 74.37 50.15 73.84C51.9 75.73 53.84 76.7 56.3 76.52C58.75 76.34 60.56 75.18 62.1 73.05C62.16 73.52 62.22 73.82 62.22 74.11C62.22 77.2 62.22 80.3 62.23 83.39C62.23 84.4 62.31 85.4 62.41 86.4C62.43 86.59 62.75 86.9 62.91 86.89C63.12 86.88 63.44 86.63 63.49 86.43C63.58 86.07 63.51 85.67 63.51 85.29C63.51 82.7 63.53 80.12 63.54 77.53C63.54 74.52 63.54 71.5 63.55 68.49C63.55 67.66 63.65 66.82 63.77 65.9C64.83 67.78 66.63 68.17 68.49 68.46C70.54 68.79 72.12 68.02 73.52 66.39C73.52 66.9 73.52 67.4 73.52 67.91C73.5 72.59 73.48 77.27 73.46 81.95C73.46 82.85 73.42 83.75 73.46 84.64C73.46 84.86 73.71 85.06 73.85 85.27C74.09 85.07 74.48 84.9 74.53 84.66C74.68 83.89 74.74 83.1 74.77 82.31C74.89 78.91 75 75.51 75.11 72.11C75.12 71.75 75.17 71.39 75.28 71C76.85 73.89 79.42 75.44 82.47 75.53C85.43 75.62 88.29 74.69 90.22 71.88C90.28 72.51 90.36 73.13 90.39 73.76C90.48 75.94 90.58 78.11 90.63 80.29C90.67 81.92 90.61 83.55 90.63 85.18C90.66 87.17 90.74 89.15 90.78 91.14C90.83 93.81 90.88 96.48 90.9 99.15C90.9 100.12 90.52 100.47 89.45 100.49C88.02 100.52 86.58 100.49 85.14 100.49C83.56 100.49 83.23 100.83 83.26 102.41C83.26 102.63 83.31 102.84 83.35 103.05C83.56 104.37 83.04 105.07 81.73 105.17C81.22 105.21 80.7 105.19 80.19 105.24C79.73 105.28 79.24 105.44 79.38 106.01C79.44 106.25 79.9 106.39 80.18 106.57C80.2 106.58 80.24 106.57 80.26 106.57C80.75 106.72 81.62 106.82 81.66 107.05C81.75 107.63 81.64 108.4 81.3 108.85C80.72 109.63 80.57 110.21 80.98 111.18C81.63 112.7 81.62 114.34 80.58 115.77C80.26 116.2 79.76 116.67 79.27 116.76C78.17 116.98 77.03 117 75.9 117.05C74.9 117.09 73.89 117.02 72.89 117.05C69.91 117.14 66.93 117.3 63.94 117.33C56.07 117.42 48.2 117.48 40.33 117.49C33.82 117.49 27.31 117.4 20.8 117.34C20.69 117.34 20.58 117.33 20.38 117.31" fill="#1D1D1B"/>
</svg>
